icons/svg/seamark/notice_information_launchingbeachingpermitted.svg

<?xml version="1.0" encoding="UTF-8" standalone="no"?>
<svg
   xmlns:dc="http://purl.org/dc/elements/1.1/"
   xmlns:cc="http://creativecommons.org/ns#"
   xmlns:rdf="http://www.w3.org/1999/02/22-rdf-syntax-ns#"
   xmlns:svg="http://www.w3.org/2000/svg"
   xmlns="http://www.w3.org/2000/svg"
   xmlns:sodipodi="http://sodipodi.sourceforge.net/DTD/sodipodi-0.dtd"
   xmlns:inkscape="http://www.inkscape.org/namespaces/inkscape"
   width="320"
   height="320"
   id="svg2"
   version="1.1"
   inkscape:version="0.48.4 r9939"
   sodipodi:docname="notice_information_highspeedspermitted.svg">
  <defs
     id="defs13">
    <inkscape:path-effect
       effect="gears"
       id="path-effect3774"
       is_visible="true"
       teeth="6"
       phi="-1.2" />
    <inkscape:path-effect
       effect="bend_path"
       id="path-effect3772"
       is_visible="false"
       bendpath="m 95.790098,316.51174 c 144.429032,-206.42506 223.313032,-11.7428 339.548092,0"
       prop_scale="1.19"
       scale_y_rel="false"
       vertical="false"
       bendpath-nodetypes="cc" />
  </defs>
  <sodipodi:namedview
     pagecolor="#ffffff"
     bordercolor="#666666"
     borderopacity="1"
     objecttolerance="10"
     gridtolerance="10"
     guidetolerance="10"
     inkscape:pageopacity="0"
     inkscape:pageshadow="2"
     inkscape:window-width="1920"
     inkscape:window-height="1004"
     id="namedview11"
     showgrid="true"
     inkscape:zoom="2.3017543"
     inkscape:cx="119.26529"
     inkscape:cy="165.23065"
     inkscape:window-x="1680"
     inkscape:window-y="0"
     inkscape:window-maximized="1"
     inkscape:current-layer="svg2"
     inkscape:snap-bbox="true"
     inkscape:object-nodes="true"
     inkscape:snap-midpoints="true"
     inkscape:snap-grids="true"
     inkscape:snap-bbox-edge-midpoints="true"
     showguides="true"
     inkscape:guide-bbox="true">
    <inkscape:grid
       type="xygrid"
       id="grid2990"
       empspacing="5"
       visible="true"
       enabled="true"
       snapvisiblegridlinesonly="true"
       spacingx="10px"
       spacingy="10px"
       dotted="false" />
    <sodipodi:guide
       orientation="1,0"
       position="55.202458,260.58927"
       id="guide3872" />
    <sodipodi:guide
       orientation="1,0"
       position="265.17816,340"
       id="guide3874" />
    <sodipodi:guide
       orientation="0,1"
       position="317.80107,264.96094"
       id="guide3876" />
    <sodipodi:guide
       orientation="0,1"
       position="325.098,54.759006"
       id="guide3878" />
  </sodipodi:namedview>
  <metadata
     id="metadata2975">image/svg+xmlen<rdf:RDF>
  <cc:Work
     rdf:about="">
    <dc:format>image/svg+xml</dc:format>
    <dc:type
       rdf:resource="http://purl.org/dc/dcmitype/StillImage" />
    <dc:title></dc:title>
  </cc:Work>
</rdf:RDF>
</metadata>
  <path
     style="fill:#fefefe;fill-opacity:1"
     inkscape:connector-curvature="0"
     id="path5679"
     d="m 208.1041,116.02753 -28.03195,7.63129 -15.56581,-10.79836 -5.40761,1.29715 15.4142,10.83206 -84.954995,23.29819 6.216218,22.80964 85.275077,-23.24764 c 33.03524,-9.82129 27.02117,-31.85602 27.02117,-31.85602" />
  <path
     style="fill:#fefefe;fill-opacity:1"
     inkscape:connector-curvature="0"
     id="path5681"
     d="m 134.41916,174.36565 c 0.10108,-1.90361 0.45485,-3.72299 1.07815,-5.44129 l -38.442852,10.71413 1.229769,4.71692 36.134933,-9.98976 z" />
  <path
     style="fill:#fefefe;fill-opacity:1"
     inkscape:connector-curvature="0"
     id="path5683"
     d="m 169.32433,164.71283 c -1.04446,-1.51616 -2.27423,-2.88069 -3.67246,-4.04307 l 64.1332,-17.70528 v 5.08753 l -60.46074,16.66082 z" />
  <path
     style="fill:#fefefe;fill-opacity:1"
     inkscape:connector-curvature="0"
     id="path5685"
     d="m 153.47213,181.57579 c -3.45346,0 -6.24991,-2.7796 -6.24991,-6.23306 0,-3.45345 2.79645,-6.24991 6.24991,-6.24991 3.45345,0 6.2499,2.79646 6.2499,6.24991 0,3.45346 -2.79645,6.23306 -6.2499,6.23306 z m -62.600196,38.30809 c 3.049147,0 5.946679,-0.69069 8.524136,-1.85308 2.67853,-1.22976 5.67715,-1.95414 8.81052,-1.95414 3.13338,0 6.132,0.72438 8.77684,1.95414 2.61115,1.16239 5.50867,1.85308 8.55783,1.85308 3.04915,0 5.94668,-0.69069 8.55782,-1.85308 2.66169,-1.22976 5.6603,-1.95414 8.77683,-1.95414 3.15023,0 6.13199,0.72438 8.81053,1.95414 2.57745,1.16239 5.50868,1.85308 8.54098,1.85308 3.0323,0 5.94668,-0.69069 8.54099,-1.85308 2.67853,-1.22976 5.69398,-1.95414 8.81052,-1.95414 3.11653,0 6.13199,0.72438 8.77682,1.95414 2.59431,1.16239 5.52553,1.85308 8.55783,1.85308 3.0323,0 5.94668,-0.69069 8.55783,-1.85308 2.64484,-1.22976 5.66029,-1.95414 8.77683,-1.95414 3.11653,0 6.13198,0.72438 8.79368,1.95414 2.59431,1.16239 5.52553,1.85308 8.54098,1.85308 l 0.20216,-50.90899 -70.13041,19.32251 c 4.83484,-2.34161 8.18722,-7.24384 8.18722,-12.95467 0,-7.96821 -6.45207,-14.40343 -14.40343,-14.40343 -7.95138,0 -14.40344,6.45206 -14.40344,14.40343 0,7.95137 6.46891,14.40344 14.40344,14.40344 0.47168,0 0.96023,-0.10108 1.41507,-0.15162 l -63.914194,17.62104 -0.06739,12.66829 z" />
</svg>

<svg width="320" height="320" viewBox="0 0 320 320" fill="none" xmlns="http://www.w3.org/2000/svg">
<path d="M208.104 116.027L180.072 123.659L164.506 112.86L159.099 114.158L174.513 124.99L89.5579 148.288L95.7741 171.097L181.049 147.85C214.084 138.028 208.07 115.994 208.07 115.994" fill="#FEFEFE"/>
<path d="M134.419 174.366C134.52 172.462 134.874 170.643 135.497 168.925L97.0544 179.639L98.2842 184.356L134.419 174.366Z" fill="#FEFEFE"/>
<path d="M169.324 164.713C168.28 163.197 167.05 161.833 165.652 160.67L229.785 142.965V148.052L169.324 164.713V164.713Z" fill="#FEFEFE"/>
<path d="M153.472 181.576C150.019 181.576 147.222 178.796 147.222 175.343C147.222 171.889 150.019 169.093 153.472 169.093C156.926 169.093 159.722 171.889 159.722 175.343C159.722 178.796 156.926 181.576 153.472 181.576ZM90.872 219.884C93.9211 219.884 96.8186 219.193 99.3961 218.031C102.075 216.801 105.073 216.077 108.207 216.077C111.34 216.077 114.339 216.801 116.983 218.031C119.595 219.193 122.492 219.884 125.541 219.884C128.59 219.884 131.488 219.193 134.099 218.031C136.761 216.801 139.759 216.077 142.876 216.077C146.026 216.077 149.008 216.801 151.686 218.031C154.264 219.193 157.195 219.884 160.227 219.884C163.26 219.884 166.174 219.193 168.768 218.031C171.447 216.801 174.462 216.077 177.579 216.077C180.695 216.077 183.711 216.801 186.356 218.031C188.95 219.193 191.881 219.884 194.914 219.884C197.946 219.884 200.86 219.193 203.471 218.031C206.116 216.801 209.132 216.077 212.248 216.077C215.365 216.077 218.38 216.801 221.042 218.031C223.636 219.193 226.567 219.884 229.583 219.884L229.785 168.975L159.655 188.298C164.49 185.956 167.842 181.054 167.842 175.343C167.842 167.375 161.39 160.939 153.438 160.939C145.487 160.939 139.035 167.392 139.035 175.343C139.035 183.294 145.504 189.746 153.438 189.746C153.91 189.746 154.399 189.645 154.854 189.595L90.9393 207.216L90.8719 219.884H90.872Z" fill="#FEFEFE"/>
</svg>
